X: 530
T:Zamanska Igra
O:Bulgaria
L:1/16
M:15/16
Q:1/4=60
S:Folk dances from Bulgaria, learned and collected by Jaap Leegwater.(BHA 10441)
K:ADor
|:A2E A2A2 B c2B ABcd|A2E A2A2 B  c2B A4      :|
|:A2d dcBA z  d2c B3A| A2E A2A2 B  c2B ABcd   |
  e2c dcBA-A  d2c B4 | A2E A2A2 B  c2B A2 z2  :|



